Sources/FrostedUI/Resources/Icons.xcassets/messagesQuestion16.imageset/messages-question-16.svg

<svg width="16" height="16" viewBox="0 0 16 16" fill="none" xmlns="http://www.w3.org/2000/svg" data-fui-icon="true">
  <path
    d="M12.835 1.75C13.9852 1.7502 14.9178 2.68267 14.918 3.83301V8.16699C14.9178 9.31736 13.9852 10.2498 12.835 10.25H12.252V10.833C12.252 11.9835 11.3183 12.9168 10.168 12.917H7.19531L4.36621 14.4893L4.27637 14.5312C4.06355 14.6151 3.82138 14.5972 3.62109 14.4795C3.39221 14.3447 3.25195 14.0987 3.25195 13.833V12.917H3.16797C2.01753 12.9168 1.08496 11.9835 1.08496 10.833V6.5C1.08496 5.34951 2.01752 4.41717 3.16797 4.41699H3.91797V3.83301C3.91814 2.68256 4.85147 1.75 6.00195 1.75H12.835ZM3.16797 5.91699C2.84595 5.91717 2.58496 6.17794 2.58496 6.5V10.833C2.58496 11.1551 2.84594 11.4168 3.16797 11.417H4.00195C4.41585 11.4174 4.75195 11.753 4.75195 12.167V12.5576L6.6377 11.5107L6.72363 11.4697C6.81168 11.4347 6.9066 11.417 7.00195 11.417H10.168C10.4899 11.4168 10.752 11.155 10.752 10.833V9.53809C10.7513 9.52546 10.75 9.51279 10.75 9.5C10.75 9.48689 10.7513 9.47389 10.752 9.46094V6.5C10.752 6.17797 10.4899 5.91719 10.168 5.91699H3.16797ZM6.79004 9.86035C7.10318 9.86046 7.35742 10.1146 7.35742 10.4277C7.3573 10.7408 7.10311 10.995 6.79004 10.9951C6.47688 10.9951 6.22278 10.7409 6.22266 10.4277C6.22266 10.1145 6.4768 9.86035 6.79004 9.86035ZM6.71582 6.25098C7.52012 6.25099 8.16184 6.90706 8.16211 7.70508C8.16211 8.36004 7.72988 8.7021 7.48145 8.87109L7.14355 8.375L7.48047 8.87109C7.40468 8.92262 7.35605 8.96667 7.32324 9.01074C7.29412 9.04993 7.26587 9.10522 7.25195 9.19727C7.2027 9.52489 6.89695 9.75129 6.56934 9.70215C6.24178 9.65289 6.01638 9.34708 6.06543 9.01953C6.15695 8.41127 6.51524 8.07692 6.80664 7.87891C6.89391 7.81954 6.93083 7.78335 6.94824 7.75977C6.95455 7.75117 6.95685 7.74552 6.95801 7.74219C6.95915 7.73883 6.96289 7.72749 6.96289 7.70508C6.96262 7.55907 6.84669 7.45021 6.71582 7.4502C6.58492 7.4502 6.46902 7.55903 6.46875 7.70508C6.46875 8.03645 6.20051 8.30566 5.86914 8.30566C5.53777 8.30566 5.26953 8.03645 5.26953 7.70508C5.26981 6.90708 5.91143 6.25098 6.71582 6.25098ZM6.00195 3.25C5.6799 3.25 5.41814 3.51099 5.41797 3.83301V4.41699H10.168C11.3183 4.41719 12.252 5.34951 12.252 6.5V8.75H12.835C13.1568 8.7498 13.4178 8.48888 13.418 8.16699V3.83301C13.4178 3.51113 13.1568 3.2502 12.835 3.25H6.00195Z"
    fill="currentColor"
  />
</svg>

<svg xmlns="http://www.w3.org/2000/svg" width="16" height="16" fill="none" data-fui-icon="true" viewBox="0 0 16 16"><path fill="currentColor" d="M12.835 1.75c1.15 0 2.083.933 2.083 2.083v4.334c0 1.15-.933 2.083-2.083 2.083h-.583v.583c0 1.15-.934 2.084-2.084 2.084H7.195l-2.829 1.572-.09.042a.75.75 0 0 1-1.024-.698v-.916h-.084a2.084 2.084 0 0 1-2.083-2.084V6.5c0-1.15.933-2.083 2.083-2.083h.75v-.584c0-1.15.933-2.083 2.084-2.083zM3.168 5.917a.583.583 0 0 0-.583.583v4.333c0 .322.26.584.583.584h.834a.75.75 0 0 1 .75.75v.39l1.886-1.046.086-.041a.8.8 0 0 1 .278-.053h3.166a.585.585 0 0 0 .584-.584V9.538L10.75 9.5l.002-.04V6.5a.584.584 0 0 0-.584-.583zM6.79 9.86a.568.568 0 1 1 0 1.136.568.568 0 0 1 0-1.136m-.074-3.609a1.45 1.45 0 0 1 1.446 1.454c0 .655-.432.997-.68 1.166l-.338-.496.336.496a.6.6 0 0 0-.157.14.4.4 0 0 0-.071.186.6.6 0 0 1-1.187-.177c.092-.609.45-.943.742-1.141a.6.6 0 0 0 .141-.12l.01-.017a.1.1 0 0 0 .005-.037.25.25 0 0 0-.247-.255.25.25 0 0 0-.247.255.6.6 0 1 1-1.2 0 1.45 1.45 0 0 1 1.447-1.454M6.002 3.25a.584.584 0 0 0-.584.583v.584h4.75c1.15 0 2.084.933 2.084 2.083v2.25h.583a.583.583 0 0 0 .583-.583V3.833a.583.583 0 0 0-.583-.583z"/></svg>
